X:1
T:Hopswalzer
C:Jens Wollschlger
O:Germany
R:Waltz
M:3/4
L:1/8
K:D
|:AG|F2 A2 A2|A4 F2|G2 B2 B2|B4 B2|A2 c2 e2|A2 c2 e2|d3c de|fe dB AG|F2 A2 A2|A4 F2|G2 B2 B2|B4 B2|A2 c2 e2|e2 d2 c2|d4 f2|d4:|
|:cd|e2 A2 A2|A4 de|f2 B2 B2|B4 ef|g2 e2 g2|f2 d2 f2|ef ed cB|cd cB AG|F2 A2 A2|A4 F2|G2 B2 B2|B4 B2|A2 c2 e2|e2 d2 c2|d4 f2|d4:|
